@plugins/plugin-tailwind/icon.svg

<svg width="128" height="128" viewBox="0 0 128 128" fill="none" xmlns="http://www.w3.org/2000/svg">
<rect width="128" height="128" fill="white"/>
<path fill-rule="evenodd" clip-rule="evenodd" d="M64 43C54.6667 43 48.8333 47.6667 46.5 57C50 52.3333 54.0833 50.5833 58.75 51.75C61.4126 52.4156 63.3157 54.3473 65.4222 56.4855C68.8537 59.9686 72.8253 64 81.5 64C90.8333 64 96.6667 59.3333 99 50C95.5 54.6667 91.4167 56.4167 86.75 55.25C84.0874 54.5844 82.1843 52.6527 80.0778 50.5145C76.6463 47.0314 72.6747 43 64 43ZM46.5 64C37.1667 64 31.3333 68.6667 29 78C32.5 73.3333 36.5833 71.5833 41.25 72.75C43.9126 73.4157 45.8157 75.3473 47.9222 77.4855C51.3537 80.9686 55.3253 85 64 85C73.3333 85 79.1667 80.3333 81.5 71C78 75.6667 73.9167 77.4167 69.25 76.25C66.5874 75.5844 64.6843 73.6527 62.5778 71.5145C59.1463 68.0314 55.1747 64 46.5 64Z" fill="url(#paint0_linear)"/>
<rect width="128" height="128" fill="#F8F9FB"/>
<path fill-rule="evenodd" clip-rule="evenodd" d="M64 43C54.6667 43 48.8333 47.6667 46.5 57C50 52.3333 54.0833 50.5833 58.75 51.75C61.4126 52.4156 63.3157 54.3473 65.4222 56.4855C68.8537 59.9686 72.8253 64 81.5 64C90.8333 64 96.6667 59.3333 99 50C95.5 54.6667 91.4167 56.4167 86.75 55.25C84.0874 54.5844 82.1843 52.6527 80.0778 50.5145C76.6463 47.0314 72.6747 43 64 43ZM46.5 64C37.1667 64 31.3333 68.6667 29 78C32.5 73.3333 36.5833 71.5833 41.25 72.75C43.9126 73.4157 45.8157 75.3473 47.9222 77.4855C51.3537 80.9686 55.3253 85 64 85C73.3333 85 79.1667 80.3333 81.5 71C78 75.6667 73.9167 77.4167 69.25 76.25C66.5874 75.5844 64.6843 73.6527 62.5778 71.5145C59.1463 68.0314 55.1747 64 46.5 64Z" fill="url(#paint1_linear)"/>
<defs>
<linearGradient id="paint0_linear" x1="27.0556" y1="43" x2="99" y2="84.4815" gradientUnits="userSpaceOnUse">
<stop stop-color="#2298BD"/>
<stop offset="1" stop-color="#0ED7B5"/>
</linearGradient>
<linearGradient id="paint1_linear" x1="27.0556" y1="43" x2="99" y2="84.4815" gradientUnits="userSpaceOnUse">
<stop stop-color="#2298BD"/>
<stop offset="1" stop-color="#0ED7B5"/>
</linearGradient>
</defs>
</svg>

<svg xmlns="http://www.w3.org/2000/svg" fill="none" viewBox="0 0 128 128">
  <defs/>
  <path fill="#fff" d="M0 0h128v128H0z"/>
  <path fill="url(#paint0_linear)" fill-rule="evenodd" d="M64 43c-9.333 0-15.167 4.667-17.5 14 3.5-4.667 7.583-6.417 12.25-5.25 2.663.666 4.566 2.597 6.672 4.736C68.854 59.968 72.825 64 81.5 64c9.333 0 15.167-4.667 17.5-14-3.5 4.667-7.583 6.417-12.25 5.25-2.663-.666-4.566-2.597-6.672-4.736C76.646 47.032 72.675 43 64 43zM46.5 64c-9.333 0-15.167 4.667-17.5 14 3.5-4.667 7.583-6.417 12.25-5.25 2.663.666 4.566 2.597 6.672 4.736C51.354 80.969 55.325 85 64 85c9.333 0 15.167-4.667 17.5-14-3.5 4.667-7.583 6.417-12.25 5.25-2.663-.666-4.566-2.597-6.672-4.736C59.146 68.031 55.175 64 46.5 64z" clip-rule="evenodd"/>
  <path fill="#F8F9FB" d="M0 0h128v128H0z"/>
  <path fill="url(#paint1_linear)" fill-rule="evenodd" d="M64 43c-9.333 0-15.167 4.667-17.5 14 3.5-4.667 7.583-6.417 12.25-5.25 2.663.666 4.566 2.597 6.672 4.736C68.854 59.968 72.825 64 81.5 64c9.333 0 15.167-4.667 17.5-14-3.5 4.667-7.583 6.417-12.25 5.25-2.663-.666-4.566-2.597-6.672-4.736C76.646 47.032 72.675 43 64 43zM46.5 64c-9.333 0-15.167 4.667-17.5 14 3.5-4.667 7.583-6.417 12.25-5.25 2.663.666 4.566 2.597 6.672 4.736C51.354 80.969 55.325 85 64 85c9.333 0 15.167-4.667 17.5-14-3.5 4.667-7.583 6.417-12.25 5.25-2.663-.666-4.566-2.597-6.672-4.736C59.146 68.031 55.175 64 46.5 64z" clip-rule="evenodd"/>
  <defs>
    <linearGradient id="paint0_linear" x1="27.056" x2="99" y1="43" y2="84.481" gradientUnits="userSpaceOnUse">
      <stop stop-color="#2298BD"/>
      <stop offset="1" stop-color="#0ED7B5"/>
    </linearGradient>
    <linearGradient id="paint1_linear" x1="27.056" x2="99" y1="43" y2="84.481" gradientUnits="userSpaceOnUse">
      <stop stop-color="#2298BD"/>
      <stop offset="1" stop-color="#0ED7B5"/>
    </linearGradient>
  </defs>
</svg>
